svgs/sharp-solid/play-pause.svg

<svg xmlns="http://www.w3.org/2000/svg" viewBox="0 0 640 512"><!--! Font Awesome Pro 6.6.0 by @fontawesome - https://fontawesome.com License - https://fontawesome.com/license (Commercial License) Copyright 2024 Fonticons, Inc. --><path d="M320 256L64 448 64 64 320 256zM448 96l0 320 0 32-64 0 0-32 0-320 0-32 64 0 0 32zm128 0l0 320 0 32-64 0 0-32 0-320 0-32 64 0 0 32z"/></svg>

<svg xmlns="http://www.w3.org/2000/svg" viewBox="0 0 640 512"><!--! Font Awesome Pro 6.4.0 by @fontawesome - https://fontawesome.com License - https://fontawesome.com/license (Commercial License) Copyright 2023 Fonticons, Inc. --><path d="M320 256L64 448V64L320 256zM448 96V416v32H384V416 96 64h64V96zm128 0V416v32H512V416 96 64h64V96z"/></svg>
